X:1
T:Freunde, lasset uns beim Zechen
T:Wolfgang Amadeus Mozart, Cuparius
T:Wolfgang Amadeus Mozart, Cuparius
T:© 2012
T:© 2012
T:© 2012
T:© 2012
T:© 2012
T:© 2012
T:© 2012
T:© 2012
T:© 2012
T:© 2012
Z:© 2012
%%score 1 2 3 4
L:1/8
Q:1/4=184
M:4/4
K:F
V:1 treble nm="Sopran" snm="S."
V:2 treble nm="Alt" snm="A."
V:3 treble-8 nm="Tenor" snm="T."
V:4 bass nm="Bass" snm="B."
V:1
"^Presto" c3 c cccc | A2 F2 z4 | c3 c cccc | A2 F2 z FFF | d4 z FFF | c4 z AAA | G2 d2 c2 E2 | %7
w: Freun- de las- set uns beim|Zech- en|wac- ker ei- ne Lan- ze|brech- en! Es leb' der|Wein, die Lieb- ste|mein! Drauf leer sein|Gläs- chen je- der|
 FFFF FFFF | E2 C2 z4 | z FFF FFFF | E2 C2 z4 | z FFF A4 | z FFF B4 | z FFF AFFF | B2 B2 c2 c2 | %15
w: aus. Mit euch ist gar nichts an- zu-|fang- en,|da sitzt ihr still wie Hopf- en-|stang- en.|Sie le- be hoch!|So schrei- et doch!|Sie le- be hoch! So schrei- et|doch, so schrei- et|
 f4 z FGA | B3 G EGCE | F4 z FGA | B3 G EGCE | F2 F2 f4 | z2 F2 f4 | z2 A2 cAF_E | D2 B2 A2 G2 | %23
w: doch! Seid ihr wie|Stock- fisch denn ge- wor- den|stumm? Seid ihr wie|Stock- fisch denn ge- wor- den|stumm? So schreit,|so schreit,|so schreit, ihr Es- el,|doch, seid nicht so|
 F4 z3 F | G3 G B3 G | FG A2 z3 F | G3 G B3 G | FG A2 c2 F2 | z4 d2 F2 | z4 c2 F2 | z2 G2 A2 B2 | %31
w: dumm! Es|leb' die Lie- be|und der Wein, was|könnt' auf Er- den|schö- n'res sein? Vi- vat,|vi- vat,|vi- vat,|sie le- be|
 A4 | z8 | z8 | z8 | z8 | z8 | z8 | z8 | z8 | z8 | z8 | z8 | z8 | z8 | z8 | z8 | z8 | z8 | z8 | %50
w: hoch!|||||||||||||||||||
 z8 | z8 | z8 | z8 | z8 | z8 | c3 c cccc | A2 F2 z4 | c3 c cccc | A2 F2 z FFF | d4 z FFF | %61
w: ||||||Freun- de las- set uns beim|Zech- en|wac- ker ei- ne Lan- ze|brech- en! Es leb' der|Wein, die * ste|
 c4 z AAA | G2 d2 c2 E2 | FFFF | FFFF E2 C2 | z4 z FFF | FFFF E2 C2 | z4 z FFF | A4 z FFF | %69
w: * Drauf leer sein|Gläs- chen je- der|aus. Mit euch ist|gar nichts an- zu- fang- en,|da sitzt ihr|still wie Hopf- en- stang- en.|Sie le- be|hoch! So schrei- et|
 B4 z FFF | AFFF B2 B2 | c2 c2 f4 | z FGA B3 G | EGCE F4 | z FGA B3 G | EGCE F2 F2 | f4 z2 F2 | %77
w: doch! Sie le- be|hoch! So schrei- et doch, so|schrei- et doch!|Seid ihr wie Stock- fisch|denn ge- wor- den stumm?|Seid ihr wie Stock- fisch|denn ge- wor- den stumm? So|schreit, so|
 f4 z2 A2 | cAF_E D2 B2 | A2 G2 F4 | z3 F G3 G | B3 G FG A2 | z3 F G3 G | B3 G FG A2 | c2 F2 z4 | %85
w: schreit, so|schreit, ihr Es- el, doch, seid|nicht so dumm!|Es leb' die|Lie- be und der Wein,|was könnt' auf|Er- den schö- n'res sein?|Vi- vat,|
 d2 F2 z4 | c2 F2 z2 G2 | A2 B2 A4 | c3 c cccc | A2 F2 z4 | c3 c cccc | A2 F2 z FFF | d4 z FFF | %93
w: vi- vat,|vi- vat, sie|le- be hoch!|Freun- de las- set uns beim|Zech- en|wac- ker ei- ne Lan- ze|brech- en! Es leb' der|Wein, die Lieb- ste|
 c4 z AAA | G2 d2 c2 E2 | !fermata!F8 |] %96
w: mein! Drauf leer sein|Gläs- chen je- der|aus!|
V:2
 c3 c cccc | A2 F2 z4 | c3 c cccc | A2 F2 z FFF | d4 z FFF | c4 z AAA | G2 d2 c2 E2 | FFFF FFFF | %8
w: Freun- de las- set uns beim|Zech- en|wac- ker ei- ne Lan- ze|brech- en! Es leb' der|Wein, die Lieb- ste|mein! Drauf leer sein|Gläs- chen je- der|aus. Mit euch ist gar nichts an- zu-|
 E2 C2 z4 | z FFF FFFF | E2 C2 z4 | z FFF A4 | z FFF B4 | z FFF AFFF | B,2 B,2 C2 C2 | F4 z FGA | %16
w: fang- en,|da sitzt ihr still wie Hopf- en-|stang- en.|Sie le- be hoch!|So schrei- et doch!|Sie le- be hoch! So schrei- et|doch, so schrei- et|doch! Seid ihr wie|
 B3 G EGCE | F4 z FGA | B3 G EGCE | F2 F2 f4 | z2 F2 f4 | z2 A2 cAF_E | D2 B2 A2 G2 | F4 z3 F | %24
w: Stock- fisch denn ge- wor- den|stumm? Seid ihr wie|Stock- fisch denn ge- wor- den|stumm? So schreit,|so schreit,|so schreit, ihr Es- el,|doch, seid nicht so|dumm! Es|
 G3 G B3 G | FG A2 z3 F | G3 G B3 G | FG A2 c2 F2 | z4 d2 F2 | z4 c2 F2 | z2 G2 A2 B2 | A4 | z8 | %33
w: leb' die Lie- be|und der Wein, was|könnt' auf Er- den|schö- n'res sein? Vi- vat,|vi- vat,|vi- vat,|sie le- be|hoch!||
 z8 | z8 | z8 | z8 | z8 | z8 | z8 | z8 | z8 | z8 | z8 | z8 | z8 | z8 | z8 | c3 c cccc | A2 F2 z4 | %50
w: |||||||||||||||Freun- de las- set uns beim|Zech- en|
 c3 c cccc | A2 F2 z FFF | d4 z FFF | c4 z AAA | G2 d2 c2 E2 | FFFF FFFF | E2 C2 z4 | z FFF FFFF | %58
w: wac- ker ei- ne Lan- ze|brech- en! Es leb' der|Wein, die Lieb- ste|mein! Drauf leer sein|Gläs- chen je- der|aus. Mit euch ist gar nichts an- zu-|fang- en,|da sitzt ihr still wie Hopf- en-|
 E2 C2 z4 | z FFF A4 | z FFF B4 | z FFF AFFF | B,2 B,2 C2 C2 | F4 | z FGA B3 G | EGCE F4 | %66
w: stang- en.|Sie le- be hoch!|So schrei- et doch!|Sie le- be hoch! So schrei- et|doch, so schrei- et|doch!|Seid ihr wie Stock- fisch|denn ge- wor- den stumm?|
 z FGA B3 G | EGCE F2 F2 | f4 z2 F2 | f4 z2 A2 | cAF_E D2 B2 | A2 G2 F4 | z3 F G3 G | B3 G FG A2 | %74
w: Seid ihr wie Stock- fisch|denn ge- wor- den stumm? So|schreit, so|schreit, so|schreit, ihr Es- el, doch, seid|nicht so dumm!|Es leb' die|Lie- be und der Wein,|
 z3 F G3 G | B3 G FG A2 | c2 F2 z4 | d2 F2 z4 | c2 F2 z2 G2 | A2 B2 A4 | c3 c cccc | A2 F2 z4 | %82
w: was könnt' auf|Er- den schö- n'res sein?|Vi- vat,|vi- vat,|vi- vat, sie|le- be hoch!|Freun- de las- set uns beim|Zech- en|
 c3 c cccc | A2 F2 z FFF | d4 z FFF | c4 z AAA | G2 d2 c2 E2 | FFFF FFFF | E2 C2 z4 | z FFF FFFF | %90
w: wac- ker ei- ne Lan- ze|brech- en! Es leb' der|Wein, die Lieb- ste|mein! Drauf leer sein|Gläs- chen je- der|aus. Mit euch ist gar nichts an- zu-|fang- en,|da sitzt ihr still wie Hopf- en-|
 E2 C2 z4 | z FFF A4 | z FFF B4 | z FFF AFFF | B,2 B,2 C2 C2 | !fermata!F8 |] %96
w: stang- en.|Sie le- be hoch!|So schrei- et doch!|Sie le- be hoch! So schrei- et|doch, so schrei- et|doch!|
V:3
 c3 c cccc | A2 F2 z4 | c3 c cccc | A2 F2 z FFF | d4 z FFF | c4 z AAA | G2 d2 c2 E2 | FFFF FFFF | %8
w: Freun- de las- set uns beim|Zech- en|wac- ker ei- ne Lan- ze|brech- en! Es leb' der|Wein, die Lieb- ste|mein! Drauf leer sein|Gläs- chen je- der|aus. Mit euch ist gar nichts an- zu-|
 E2 C2 z4 | z FFF FFFF | E2 C2 z4 | z FFF A4 | z FFF B4 | z FFF AFFF | B2 B2 c2 c2 | f4 z FGA | %16
w: fang- en,|da sitzt ihr still wie Hopf- en-|stang- en.|Sie le- be hoch!|So schrei- et doch!|Sie le- be hoch! So schrei- et|doch, so schrei- et|doch! Seid ihr wie|
 B3 G EGCE | F4 z FGA | B3 G EGCE | F2 F2 f4 | z2 F2 f4 | z2 A2 cAF_E | D2 B2 A2 G2 | F4 z3 F | %24
w: Stock- fisch denn ge- wor- den|stumm? Seid ihr wie|Stock- fisch denn ge- wor- den|stumm? So schreit,|so schreit,|so schreit, ihr Es- el,|doch, seid nicht so|dumm! Es|
 G3 G B3 G | FG A2 z3 F | G3 G B3 G | FG A2 c2 F2 | z4 d2 F2 | z4 c2 F2 | z2 G2 A2 B2 | A4 | %32
w: leb' die Lie- be|und der Wein, was|könnt' auf Er- den|schö- n'res sein? Vi- vat,|vi- vat,|vi- vat,|sie le- be|hoch!|
 c3 c cccc | A2 F2 z4 | c3 c cccc | A2 F2 z FFF | d4 z FFF | c4 z AAA | G2 d2 c2 E2 | FFFF FFFF | %40
w: Freun- de las- set uns beim|Zech- en|wac- ker ei- ne Lan- ze|brech- en! Es leb' der|Wein, die Lieb- ste|mein! Drauf leer sein|Gläs- chen je- der|aus. Mit euch ist gar nichts an- zu-|
 E2 C2 z4 | z FFF FFFF | E2 C2 z4 | z FFF A4 | z FFF B4 | z FFF AFFF | B2 B2 c2 c2 | f4 z FGA | %48
w: fang- en,|da sitzt ihr still wie Hopf- en-|stang- en.|Sie le- be hoch!|So schrei- et doch!|Sie le- be hoch! So schrei- et|doch, so schrei- et|doch! Seid ihr wie|
 B3 G EGCE | F4 z FGA | B3 G EGCE | F2 F2 f4 | z2 F2 f4 | z2 A2 cAF_E | D2 B2 A2 G2 | F4 z3 F | %56
w: Stock- fisch denn ge- wor- den|stumm? Seid ihr wie|Stock- fisch denn ge- wor- den|stumm? So schreit,|so schreit,|so schreit, ihr Es- el,|doch, seid nicht so|dumm! Es|
 G3 G B3 G | FG A2 z3 F | G3 G B3 G | FG A2 c2 F2 | z4 d2 F2 | z4 c2 F2 | z2 G2 A2 B2 | A4 | %64
w: leb' die Lie- be|und der Wein, was|könnt' auf Er- den|schö- n'res sein? Vi- vat,|vi- vat,|vi- vat,|sie le- be|hoch!|
 c3 c cccc | A2 F2 z4 | c3 c cccc | A2 F2 z FFF | d4 z FFF | c4 z AAA | G2 d2 c2 E2 | FFFF FFFF | %72
w: Freun- de las- set uns beim|Zech- en|wac- ker ei- ne Lan- ze|brech- en! Es leb' der|Wein, die Lieb- ste|mein! Drauf leer sein|Gläs- chen je- der|aus. Mit euch ist gar nichts an- zu-|
 E2 C2 z4 | z FFF FFFF | E2 C2 z4 | z FFF A4 | z FFF B4 | z fff afff | B2 B2 c2 c2 | f4 z FGA | %80
w: fang- en,|da sitzt ihr still wie Hopf- en-|stang- en.|Sie le- be hoch!|So schrei- et doch!|Sie le- be hoch! So schrei- et|doch, so schrei- et|doch! Seid ihr wie|
 B3 G EGCE | F4 z FGA | B3 G EGCE | F2 F2 f4 | z2 F2 f4 | z2 A2 cAF_E | D2 B2 A2 G2 | F4 z3 F | %88
w: Stock- fisch denn ge- wor- den|stumm? Seid ihr wie|Stock- fisch denn ge- wor- den|stumm? So schreit,|so schreit,|so schreit, ihr Es- el,|doch, seid nicht so|dumm! Es|
 G3 G B3 G | FG A2 z3 F | G3 G B3 G | FG A2 c2 F2 | z4 d2 F2 | z4 c2 F2 | z2 G2 A2 B2 | %95
w: leb' die Lie- be|und der Wein, was|könnt' auf Er- den|schö- n'res sein? Vi- vat,|vi- vat,|vi- vat,|sie le- be|
 !fermata!A8 |] %96
w: hoch!|
V:4
 C,3 C, C,C,C,C, | A,,2 F,,2 z4 | C,3 C, C,C,C,C, | A,,2 F,,2 z F,,F,,F,, | D,4 z F,,F,,F,, | %5
w: Freun- de las- set uns beim|Zech- en|wac- ker ei- ne Lan- ze|brech- en! Es leb' der|Wein, die Lieb- ste|
 C,4 z A,,A,,A,, | G,,2 D,2 C,2 E,2 | F,F,F,F, F,F,F,F, | E,2 C,2 z4 | z F,,F,,F,, F,,F,,F,,F,, | %10
w: mein! Drauf leer sein|Gläs- chen je- der|aus. Mit euch ist gar nichts an- zu-|fang- en,|da sitzt ihr still wie Hopf- en-|
 E,2 C,2 z4 | z F,,F,,F,, A,,4 | z F,,F,,F,, B,,4 | z F,F,F, A,F,F,F, | B,,2 B,,2 C,2 C,2 | %15
w: stang- en.|Sie le- be hoch!|So schrei- et doch!|Sie le- be hoch! So schrei- et|doch, so schrei- et|
 F,4 z F,,G,,A,, | B,,3 G,, E,G,C,E, | F,,4 z F,,G,,A,, | B,,3 G,, E,G,C,E, | F,,2 F,,2 F,4 | %20
w: doch! Seid ihr wie|Stock- fisch denn ge- wor- den|stumm? Seid ihr wie|Stock- fisch denn ge- wor- den|stumm? So schreit,|
 z2 F,,2 F,4 | z2 A,,2 C,A,,F,_E, | D,2 B,,2 A,,2 G,,2 | F,,4 z3 F,, | G,,3 G,, B,,3 G,, | %25
w: so schreit,|so schreit, ihr Es- el,|doch, seid nicht so|dumm! Es|leb' die Lie- be|
 F,,G,, A,,2 z3 F,, | G,,3 G,, B,,3 G,, | F,,G,, A,,2 C,2 F,,2 | z4 D,2 F,,2 | z4 C,2 F,,2 | %30
w: und der Wein, was|könnt' auf Er- den|schö- n'res sein? Vi- vat,|vi- vat,|vi- vat,|
 z2 G,,2 A,,2 B,,2 | A,,4 | z8 | z8 | z8 | z8 | z8 | z8 | z8 | z8 | C,3 C, C,C,C,C, | %41
w: sie le- be|hoch!|||||||||Freun- de las- set uns beim|
 A,,2 F,,2 z4 | C,3 C, C,C,C,C, | A,,2 F,,2 z F,,F,,F,, | D,4 z F,,F,,F,, | C,4 z A,,A,,A,, | %46
w: Zech- en|wac- ker ei- ne Lan- ze|brech- en! Es leb' der|Wein, die Lieb- ste|mein! Drauf leer sein|
 G,,2 D,2 C,2 E,2 | F,F,F,F, F,F,F,F, | E,2 C,2 z4 | z F,,F,,F,, F,,F,,F,,F,, | E,2 C,2 z4 | %51
w: Gläs- chen je- der|aus. Mit euch ist gar nichts an- zu-|fang- en,|da sitzt ihr still wie Hopf- en-|stang- en.|
 z F,,F,,F,, A,,4 | z F,,F,,F,, B,,4 | z F,F,F, A,F,F,F, | B,,2 B,,2 C,2 C,2 | F,4 z F,,G,,A,, | %56
w: Sie le- be hoch!|So schrei- et doch!|Sie le- be hoch! So schrei- et|doch, so schrei- et|doch! Seid ihr wie|
 B,,3 G,, E,G,C,E, | F,,4 z F,,G,,A,, | B,,3 G,, E,G,C,E, | F,,2 F,,2 F,4 | z2 F,,2 F,4 | %61
w: Stock- fisch denn ge- wor- den|stumm? Seid ihr wie|Stock- fisch denn ge- wor- den|stumm? So schreit,|so schreit,|
 z2 A,,2 C,A,,F,_E, | D,2 B,,2 A,,2 G,,2 | F,,4 | z3 F,, G,,3 G,, | B,,3 G,, F,,G,, A,,2 | %66
w: so schreit, ihr Es- el,|doch, seid nicht so|dumm!|Es leb' die|Lie- be und der Wein,|
 z3 F,, G,,3 G,, | B,,3 G,, F,,G,, A,,2 | C,2 F,,2 z4 | D,2 F,,2 z4 | C,2 F,,2 z2 G,,2 | %71
w: was könnt' auf|Er- den schö- n'res sein?|Vi- vat,|vi- vat,|vi- vat, sie|
 A,,2 B,,2 A,,4 | C,3 C, C,C,C,C, | A,,2 F,,2 z4 | C,3 C, C,C,C,C, | A,,2 F,,2 z F,,F,,F,, | %76
w: le- be hoch!|Freun- de las- set uns beim|Zech- en|wac- ker ei- ne Lan- ze|brech- en! Es leb' der|
 D,4 z F,,F,,F,, | C,4 z A,,A,,A,, | G,,2 D,2 C,2 E,2 | F,F,F,F, F,F,F,F, | E,2 C,2 z4 | %81
w: Wein, die Lieb- ste|mein! Drauf leer sein|Gläs- chen je- der|aus. Mit euch ist gar nichts an- zu-|fang- en,|
 z F,,F,,F,, F,,F,,F,,F,, | E,2 C,2 z4 | z F,,F,,F,, A,,4 | z F,,F,,F,, B,,4 | z F,F,F, A,F,F,F, | %86
w: da sitzt ihr still wie Hopf- en-|stang- en.|Sie le- be hoch!|So schrei- et doch!|Sie le- be hoch! So schrei- et|
 B,,2 B,,2 C,2 C,2 | F,4 z F,,G,,A,, | B,,3 G,, E,G,C,E, | F,,4 z F,,G,,A,, | B,,3 G,, E,G,C,E, | %91
w: doch, so schrei- et|doch! Seid ihr wie|Stock- fisch denn ge- wor- den|stumm? Seid ihr wie|Stock- fisch denn ge- wor- den|
 F,,2 F,,2 F,4 | z2 F,,2 F,4 | z2 A,,2 C,A,,F,_E, | D,2 B,,2 A,,2 G,,2 | !fermata!F,,8 |] %96
w: stumm? So schreit,|so schreit,|so schreit, ihr Es- el,|doch, seid nicht so|dumm!|

